client/public/img/killfeed/blr_killfeed.svg

<?xml version="1.0" encoding="UTF-8" standalone="no"?>
<svg
   width="85.242912"
   height="16"
   viewBox="0 0 85.242912 16"
   fill="none"
   version="1.1"
   id="svg12"
   xmlns="http://www.w3.org/2000/svg"
   xmlns:svg="http://www.w3.org/2000/svg">
  <defs
     id="defs12" />
  <path
     d="m 38.43111,3.1698782 0.191192,-0.4341934 0.356387,0.00649 c 0.057,-0.2611 0.461382,-0.3183678 0.528579,0.020639 1.095558,0.313468 2.281913,0.4643522 4.221638,0.5755479 l 8.58987,-0.016209 0.0097,0.9753125 -13.897366,0.00324 z"
     fill="#d9d9d9"
     id="path1"
     style="stroke-width:0.999962" />
  <path
     d="M 52.621064,3.3231223 V 6.711212 c 0.302489,0.081597 0.664075,0.1779232 0.939964,-0.3098781 V 3.3196824 C 53.25514,3.1455291 52.942152,3.1398793 52.621064,3.3231223 Z"
     fill="#d9d9d9"
     id="path2"
     style="stroke-width:0.999962" />
  <path
     d="M 38.43111,4.5974833 H 52.332375 V 6.7471806 L 38.43231,7.2160126 Z"
     fill="#d9d9d9"
     id="path3"
     style="stroke-width:0.999962" />
  <path
     d="m 53.856517,4.5974833 h 1.088658 v 1.2393823 c -0.0036,0.4576224 -0.217892,0.6032269 -0.626976,0.6180763 l -0.463382,0.025099 z"
     fill="#d9d9d9"
     id="path4"
     style="stroke-width:0.999962" />
  <path
     d="m 53.854817,3.329632 17.17274,-0.00516 0.534279,-0.2781193 c -0.0056,-0.1650337 0.057,-0.2782993 0.204092,-0.3272674 V 2.5311527 h 0.626176 c 0.0955,0.1639837 0.225692,0.3254975 0.448783,0.4803615 l 0.302988,0.312678 h 0.566979 V 4.7393678 H 55.239364 V 4.3039546 h -1.383347 z"
     fill="#d9d9d9"
     id="path5"
     style="stroke-width:0.999962" />
  <path
     d="m 30.885,7.8070599 5.853775,-0.233131 c -0.0511,0.1640637 -0.0104,0.2731695 -0.822569,0.4903111 -1.03876,0.2944487 -2.610899,0.4757717 -4.245536,0.6438253 -0.444883,0.050288 -0.581878,-0.1507842 -0.664475,-0.3963748 z"
     fill="#d9d9d9"
     id="path6"
     style="stroke-width:0.999962" />
  <path
     d="M 25.321814,5.6086744 C 26.164481,5.2607378 26.229579,4.9922081 26.381473,4.6612708 L 26.539567,4.2282375 C 26.72976,3.5715927 27.336736,3.1584686 28.01621,3.1410693 l 10.092712,-0.043528 0.0298,4.1195517 -7.437214,0.3024284 c -0.630876,0.019399 -0.851467,0.1942425 -1.090658,0.362006 -0.314988,0.2158717 -0.692474,0.3371771 -1.360948,0.3895051 l -1.679435,0.1237252 -0.504081,0.1580939 z"
     fill="#d9d9d9"
     id="path7"
     style="stroke-width:0.999962" />
  <path
     d="m 28.678585,8.5270122 -2.047822,0.1555241 -7.629406,2.3783887 -0.121296,0.537679 c -0.202392,1.31765 0.902666,1.627838 1.623438,1.369148 l 4.251136,-1.451745 c 0.27719,-0.103196 0.444583,-0.24719 0.601877,-0.387885 0.197593,-0.165393 0.468382,-0.24529 0.720173,-0.137794 0.314288,0.113395 0.619376,0.0642 0.858667,-0.0348 l 0.971962,-0.391185 c 0.595177,-0.276889 0.581478,-1.013961 0.588178,-1.2936904 0.017,-0.2537702 0.0109,-0.5015907 0.183093,-0.7436414 z m -1.413946,0.2185316 c 0.187993,-8.399e-4 0.436783,0.078607 0.645875,0.1864429 l -0.0039,0.4877013 c -6e-4,0.331787 -0.104796,0.557378 -0.281089,0.631876 l -0.966863,0.386885 C 26.031086,10.648441 25.366212,9.774274 25.682,9.450387 c 0.109396,0.409384 0.350686,0.985662 0.819868,0.979062 0.0863,-0.0081 0.142395,-0.0555 0.0385,-0.117595 -0.699173,-0.454683 -0.25699,-1.2017042 0.560178,-1.5369613 0.0455,-0.019949 0.101496,-0.029119 0.164094,-0.029349 z M 24.605341,9.821672 c 0.51328,-0.0243 0.942164,0.752772 -0.0743,1.150056 l -4.283535,1.467744 c -0.79687,0.26259 -1.175055,-0.706473 -0.349987,-1.04646 l 4.604423,-1.55544 c 0.0345,-0.0091 0.0692,-0.0143 0.103396,-0.0159 z"
     fill="#d9d9d9"
     id="path8"
     style="stroke-width:0.999962" />
  <path
     d="M 25.786496,8.6296883 25.035025,5.7107205 19.274946,7.5940681 C 18.64857,7.7754711 18.040494,7.6845846 17.524513,7.257271 L 16.470554,6.2651892 C 15.880677,5.6886013 15.609887,5.7555788 14.633025,5.8481852 L 1.5457574,6.7417509 C 1.5184384,9.61788 1.8963939,12.611265 2.6180362,15.571951 10.130098,13.434234 18.39338,11.058425 25.786496,8.6296883 Z"
     fill="#d9d9d9"
     id="path9"
     style="stroke-width:0.999962" />
  <path
     d="m 24.782834,5.4801194 0.0914,-0.1104458 -0.0437,-0.2381508 c -0.405685,-0.088907 -0.758871,0.031099 -0.980163,0.1992723 -0.114395,0.103976 -0.213392,0.1960825 -0.466582,0.208992 -0.223391,0.00851 -0.369386,0.1387346 -0.482781,0.285139 -0.0783,0.097906 0.0151,0.2692996 0.134395,0.2284412 z"
     fill="#d9d9d9"
     id="path10"
     style="stroke-width:0.999962" />
  <path
     d="M 1.2527386,6.7653699 0.68911029,6.8008786 C 0.13734051,6.8707859 -0.01882649,7.1490052 0.00175672,7.5203109 L 0.61551309,15.60365 c 0.017319,0.27549 0.1529842,0.492381 0.65097501,0.352787 l 1.0768586,-0.27949 C 1.5516272,12.650864 1.2888073,9.763075 1.2527386,6.7653699 Z"
     fill="#d9d9d9"
     id="path11"
     style="stroke-width:0.999962" />
  <path
     d="M 74.993004,4.2964249 74.57512,3.9664975 74.890408,3.5045953 74.483424,2.9455468 84.693032,0 80.3086,3.1086805 85.24291,3.7098874 80.506492,4.5823739 83.710569,7.4564334 74.529322,5.1065937 Z"
     fill="#d9d9d9"
     id="path12"
     style="stroke-width:0.999962" />
</svg>

<svg xmlns="http://www.w3.org/2000/svg" width="85.243" height="16" fill="none"><path fill="#d9d9d9" d="m38.431 3.17.191-.434.357.006c.057-.26.461-.318.528.02 1.096.314 2.282.465 4.222.576l8.59-.016.01.975-13.898.004zm14.19.153v3.388c.303.082.664.178.94-.31V3.32a.89.89 0 0 0-.94.003m-14.19 1.274h13.901v2.15l-13.9.469Zm15.426 0h1.088v1.24c-.003.457-.218.603-.627.618l-.463.025z" style="stroke-width:.999962"/><path fill="#d9d9d9" d="m53.855 3.33 17.173-.006.534-.278c-.006-.165.057-.278.204-.327v-.188h.626c.096.164.226.326.449.48l.303.313h.567V4.74H55.239v-.435h-1.383zm-22.97 4.477 5.854-.233c-.051.164-.01.273-.823.49-1.039.295-2.61.476-4.245.644-.445.05-.582-.15-.665-.396z" style="stroke-width:.999962"/><path fill="#d9d9d9" d="M25.322 5.609c.842-.348.908-.617 1.06-.948l.158-.433c.19-.656.797-1.07 1.476-1.087l10.093-.043.03 4.12-7.437.302c-.631.019-.852.194-1.091.362-.315.215-.693.337-1.361.389l-1.68.124-.504.158zm3.357 2.918-2.048.156L19 11.06l-.12.538c-.203 1.317.902 1.627 1.622 1.369l4.252-1.452a1.8 1.8 0 0 0 .602-.388c.197-.165.468-.245.72-.138.314.114.62.065.858-.034l.972-.392c.595-.277.582-1.014.588-1.293.017-.254.011-.502.184-.744m-1.414.219c.188-.001.436.078.646.186l-.004.488c-.001.331-.105.557-.281.632l-.967.386c-.628.21-1.293-.664-.977-.988.11.41.35.986.82.98.086-.009.142-.056.038-.118-.699-.455-.257-1.202.56-1.537a.4.4 0 0 1 .165-.03m-2.66 1.076c.514-.025.943.752-.074 1.15l-4.283 1.467c-.797.263-1.176-.706-.35-1.046l4.604-1.555a.5.5 0 0 1 .103-.016m1.182-1.19-.751-2.92-5.76 1.884c-.626.181-1.235.09-1.75-.337l-1.054-.992c-.59-.576-.861-.51-1.838-.417l-13.087.894c-.028 2.876.35 5.87 1.072 8.83 7.512-2.138 15.775-4.514 23.168-6.942" style="stroke-width:.999962"/><path fill="#d9d9d9" d="m24.783 5.48.091-.11-.043-.238a1.2 1.2 0 0 0-.98.199c-.115.104-.214.196-.467.209-.224.008-.37.139-.483.285-.078.098.015.27.134.228zM1.253 6.765l-.564.036c-.552.07-.708.348-.687.72l.614 8.083c.017.275.152.492.65.352l1.077-.28c-.791-3.025-1.054-5.913-1.09-8.91m73.74-2.47-.418-.33.315-.461-.407-.56L84.693 0l-4.384 3.109 4.934.6-4.737.873 3.205 2.874-9.182-2.35Z" style="stroke-width:.999962"/></svg>
